!!!COM: Bach, Johann Sebastian
!!!CDT: 1685/3//-1750/7/28/
!!!OTL@@DE: Komm, Gott Schoepfer, heiliger Geist
!!!AGN: 4-Part Chorale
!!!SCT: BH 187
!!!SCT: BWV 370
**harm	**root	**kern	**kern	**kern	**kern
!	!	!bass	!tenor	!alto	!soprno
*	*Iorgan	*Iorgan	*Iorgan	*Iorgan	*Iorgan
*M4/4	*M4/4	*M4/4	*M4/4	*M4/4	*M4/4
*met(c)	*met(c)	*met(c)	*met(c)	*met(c)	*met(c)
*MM60	*MM60	*MM60	*MM60	*MM60	*MM60
*k[b-e-a-d-]	*k[b-e-a-d-]	*k[b-e-a-d-]	*k[b-e-a-d-]	*k[b-e-a-d-]	*k[b-e-a-d-]
*E-:	*E-:	*E-:	*E-:	*E-:	*E-:
I	4GG	4E-	4G	8B-	4e-
.	.	.	.	8c	.
=1	=1	=1	=1	=1	=1
-VII	4FF	4D-	4A-	[4d-	4f
IV	4CC	4AA-	4A-	8d-]	4e-
.	.	.	.	[8c	.
v	4DD	4BB-	4F	8c]	4d-
.	.	.	.	16B-	.
.	.	.	.	16A-	.
vi	4EE	4C	8E-	8G	4e-
.	.	.	16A-	[8c	.
.	.	.	16G	.	.
=2	=2	=2	=2	=2	=2
ii	8AA	4FF	8A-	8c]	4a-
-VIIb	8FF	.	8d-	8A-	.
I	4GG	4EE-	4G	8e-	4b-
.	.	.	.	8d-	.
IV;	4CC;	4AA-;	4E-;	4c;	4a-;
-VII	4FF	4D-	4F	8A-	4a-
.	.	.	.	8B-	.
=3	=3	=3	=3	=3	=3
vi	4EE	4C	8G	4c	4e-
.	.	.	8A-	.	.
iiiob	4BB	4BB-	4B-	4d-	4g
IV	4CC	4.AA-	4c	4e-	4a-
I	4GG	.	[4B-	4e-	4b-
.	.	8GG	.	.	.
=4	=4	=4	=4	=4	=4
IV	4CC	4AA-	8B-]	[4e-	4cc
.	.	.	16A-	.	.
.	.	.	16G	.	.
IV	8CC	4AAA-	8A-	8e-]	4cc
vii7c	8FF#	.	8F	8d	.
I;	4GG;	4EE-;	4G;	4e-;	4b-;
I	4GG	4E-	4G	4e-	4b-
!!linebreak: 2
=5	=5	=5	=5	=5	=5
IV	4CC	4AA-	8A-	4e-	8cc
.	.	.	8G	.	8b-
IVb	4CC	4C	4A-	[4e-	4a-
-VII	4FF	4D-	4A-	8e-]	4f
.	.	.	.	[8d-	.
IV	4CC	4A-	4A-	8d-]	4e-
.	.	.	.	8c	.
=6	=6	=6	=6	=6	=6
I	4GG	8E-	4B-	4e-	4g
.	.	8D-	.	.	.
vii/v	4CC#	4C	4c	4e-	4a
v;	4DD;	4BB-;	4d-;	4f;	4b-;
vi	4EE	4C	4G	4c	4e-
=7	=7	=7	=7	=7	=7
ii	4AA	8FF	4F	8c	4a-
.	.	8GG	.	8B-	.
iib	4AA	4AA-	4F	[4c	4f
v	8DD	4BB-	8F	8c]	4d-
-IIIb	8BB-	.	8G-	16B-	.
.	.	.	.	16c	.
-VIIb	4FF	4FF	4A-	[4d-	4f
=8	=8	=8	=8	=8	=8
I7b	4GG	4GG	[4B-	4d-]	2e-
IV	4CC	4AA-	8B-]	4c	.
.	.	.	[8A-	.	.
I;	4GG;	4EE-;	8A-]	4B-;	4e-;
.	.	.	8G;	.	.
==	==	==	==	==	==
*-	*-	*-	*-	*-	*-
!!chor2scor: -l 2 -s 0.6 -o %b.pmx
!!!YEC: Copyright 1994, David Huron
!!!YEC: Changes/Additions 2001 by Craig Stuart Sapp
!!!YEN: United States of America
!!!SMA: 371 Bach Chorales, edited by Ludwig Erk, C.F. Peters
!!!PDT: 1850, 1865
!!!ONB: Harmony and Root analysis done manually
!!!ONB: Actual key is G Mixolydian 
